packages/bezier-icons/icons/line.svg

<svg width="24" height="24" viewBox="0 0 24 24" fill="none" xmlns="http://www.w3.org/2000/svg">
<path fill-rule="evenodd" clip-rule="evenodd" d="M11.9995 3.13629C17.5134 3.13629 21.9991 6.77657 21.9991 11.251C21.9991 13.0421 21.3055 14.6542 19.8565 16.2437C17.7589 18.6581 13.068 21.5992 12.0005 22.0491C10.9617 22.4872 11.0831 21.8007 11.1308 21.5309C11.1321 21.5237 11.1333 21.5168 11.1344 21.5102C11.1598 21.3602 11.2769 20.6545 11.2769 20.6545C11.3097 20.3986 11.3453 20.0031 11.2441 19.75C11.1316 19.4716 10.6883 19.3273 10.3631 19.257C5.5578 18.6216 2 15.2624 2 11.251C2 6.77657 6.48568 3.13629 11.9995 3.13629ZM8.43747 13.7956C8.53799 13.7956 8.62057 13.7139 8.62057 13.6125V12.933C8.62057 12.8325 8.53799 12.7499 8.43747 12.7499H6.60916V9.43257C6.60916 9.33205 6.52658 9.24947 6.42605 9.24947H5.74661C5.64518 9.24947 5.56351 9.33115 5.56351 9.43257V13.6125C5.56351 13.7139 5.64518 13.7956 5.74661 13.7956H8.43747ZM18.3886 13.7956H15.6987C15.5973 13.7956 15.5156 13.7139 15.5156 13.6125V9.4335C15.5156 9.33208 15.5973 9.2504 15.6987 9.2504H18.3886C18.4892 9.2504 18.5717 9.33297 18.5717 9.4335V10.1129C18.5717 10.2144 18.4901 10.296 18.3886 10.296H16.5603V11.0015H18.3886C18.4892 11.0015 18.5717 11.0841 18.5717 11.1846V11.8641C18.5717 11.9655 18.4901 12.0472 18.3886 12.0472H16.5603V12.7526H18.3886C18.4892 12.7526 18.5717 12.8352 18.5717 12.9357V13.6152C18.5717 13.7166 18.4901 13.7983 18.3886 13.7983V13.7956ZM9.37811 9.2504H10.0567C10.1578 9.2504 10.2398 9.33237 10.2398 9.4335V13.6125C10.2398 13.7136 10.1578 13.7956 10.0567 13.7956H9.37811C9.27699 13.7956 9.19501 13.7136 9.19501 13.6125V9.4335C9.19501 9.33237 9.27699 9.2504 9.37811 9.2504ZM14.6799 9.2504H14.0005C13.8991 9.2504 13.8174 9.33208 13.8174 9.4335V11.9152L11.9056 9.33297C11.9033 9.32983 11.9009 9.32669 11.8984 9.32355C11.8972 9.32207 11.8961 9.32059 11.8949 9.31911C11.8937 9.31744 11.8924 9.31578 11.8912 9.31412L11.8903 9.31323C11.8885 9.31143 11.8867 9.30941 11.8849 9.30739C11.8832 9.30537 11.8814 9.30335 11.8796 9.30156L11.876 9.29887L11.8661 9.29079C11.8652 9.29034 11.8643 9.28967 11.8634 9.289C11.8625 9.28832 11.8616 9.28765 11.8607 9.2872C11.858 9.2845 11.8544 9.28271 11.8508 9.28091C11.8499 9.28047 11.849 9.27979 11.8482 9.27912C11.8473 9.27845 11.8464 9.27777 11.8455 9.27732L11.8356 9.27194L11.8302 9.26925C11.8266 9.26745 11.823 9.26566 11.8194 9.26476C11.819 9.26476 11.8185 9.26464 11.8181 9.26447C11.8177 9.26434 11.8173 9.26417 11.8169 9.264C11.8158 9.26351 11.8146 9.26296 11.8131 9.26296C11.8122 9.26273 11.8113 9.26243 11.8103 9.2621C11.8095 9.26181 11.8086 9.26149 11.8078 9.26117C11.806 9.2605 11.8042 9.25982 11.8024 9.25937C11.8006 9.25937 11.7979 9.25848 11.7961 9.25758C11.7937 9.25758 11.7913 9.25678 11.7889 9.25598L11.7853 9.25489C11.7826 9.25489 11.7799 9.25489 11.7772 9.25399C11.7754 9.25399 11.7739 9.25376 11.7723 9.25354C11.7707 9.25332 11.7692 9.25309 11.7674 9.25309H11.0763C10.9757 9.25309 10.8932 9.33477 10.8932 9.43619V13.6152C10.8932 13.7157 10.9748 13.7983 11.0763 13.7983H11.7557C11.8571 13.7983 11.9388 13.7166 11.9388 13.6152V11.1335L13.8533 13.7193C13.8667 13.7382 13.8829 13.7534 13.9009 13.7651C13.9009 13.7651 13.9026 13.766 13.9026 13.7669C13.9039 13.7678 13.9051 13.7686 13.9064 13.7694C13.9088 13.7709 13.9114 13.7723 13.9143 13.7741L13.9197 13.7768C13.921 13.7776 13.9226 13.7783 13.9242 13.779C13.9258 13.7797 13.9273 13.7803 13.9287 13.7812C13.9308 13.7827 13.9336 13.7836 13.936 13.7843C13.9366 13.7845 13.9371 13.7847 13.9377 13.7848C13.9385 13.7848 13.9394 13.7853 13.9403 13.7857C13.9412 13.7862 13.9421 13.7866 13.943 13.7866C13.9475 13.7884 13.9511 13.7893 13.9556 13.7902H13.9583C13.9736 13.7938 13.9897 13.7965 14.0059 13.7965H14.6808C14.7814 13.7965 14.8639 13.7148 14.8639 13.6134V9.4344C14.8639 9.33387 14.7822 9.2513 14.6808 9.2513L14.6799 9.2504Z" fill="#313234"/>
</svg>

<svg xmlns="http://www.w3.org/2000/svg" width="24" height="24" fill="none" viewBox="0 0 24 24"><path fill="#313234" fill-rule="evenodd" d="M12 3.136c5.513 0 10 3.64 10 8.115 0 1.791-.695 3.403-2.143 4.993-2.098 2.414-6.789 5.355-7.856 5.805-1.04.438-.918-.248-.87-.518l.003-.02.143-.857c.033-.255.068-.65-.033-.904-.112-.278-.556-.423-.88-.493C5.557 18.622 2 15.262 2 11.251c0-4.474 4.486-8.115 10-8.115m-3.563 10.66c.101 0 .184-.082.184-.183v-.68c0-.1-.083-.183-.184-.183H6.61V9.433c0-.1-.082-.184-.183-.184h-.68a.183.183 0 0 0-.182.184v4.18c0 .1.081.183.183.183zm9.952 0h-2.69a.183.183 0 0 1-.183-.183v-4.18c0-.1.081-.183.183-.183h2.69c.1 0 .183.083.183.184v.679a.183.183 0 0 1-.183.183H16.56v.706h1.829c.1 0 .183.082.183.183v.68a.183.183 0 0 1-.183.182H16.56v.706h1.829c.1 0 .183.082.183.183v.68a.183.183 0 0 1-.183.182zM9.379 9.25h.678c.1 0 .183.082.183.184v4.179a.183.183 0 0 1-.183.183h-.679a.183.183 0 0 1-.183-.183v-4.18c0-.1.082-.183.183-.183m5.3 0h-.678a.183.183 0 0 0-.184.184v2.481l-1.911-2.582-.008-.01-.003-.004-.004-.005-.011-.012-.004-.003-.01-.008-.003-.002-.002-.002q-.005-.004-.01-.006l-.003-.002-.003-.002-.01-.005-.005-.003-.013-.005-.004-.001h-.003l-.002-.002-.006-.002-.006-.001-.007-.002-.004-.001-.008-.001h-.7c-.101 0-.184.08-.184.182v4.18c0 .1.082.182.183.182h.68a.183.183 0 0 0 .183-.183v-2.482l1.914 2.586a.2.2 0 0 0 .053.05l.008.005.006.003.004.002.005.002.007.003h.002l.002.002h.003l.013.004h.002a.2.2 0 0 0 .048.007h.675c.1 0 .183-.082.183-.184V9.434c0-.1-.082-.183-.183-.183z" clip-rule="evenodd"/></svg>
